X:1151
T:Lord Cornwallis's March.
M:C
L:1/8
Q:1/2=66
Z:Jack Campin * www.campin.me.uk * 2009
K:D
A2 |d3  d  e3 e |a3 f  d2A2|B3  c  edcB|BA A>A A2
a>f|g2 e>e e2g>e|a2f>f f2A2|Be`gb  f2e2|d2 d>d d2 :|
A2 |e2 e>e f2f>f|a3 g  gfed|e2 e>e bged|c2 e>e eABc|
    d3  c  cBBA |B3 A  AGGF|Be`ge  d2c2|d2 d>d d2 :|
<end>
<start>
